X:7
T: Pass Go
C:Mike Mahar
L:1/8
Q:1/4=140
M:6/8
K:D
A2 |: "D"dAF DFA | "G"B2B B2c | "D"dAF DFA | "A"G2F E2A |
 "D"dAF DFA | "G"B2B B2A |  Bcd "D"AFD | "A"GFE "D"D2A :|
|: "G"B2B Bcd | "D"A2F F2F | "A"G2E EFG | "D"A2F F2A |
  "G"B2B Bcd | "D"A2F F2A | ABA "A"GFE |1 "D"D3 z2A :|2 "D"D6 |]

